svg/azure-cosmos.svg

<?xml version="1.0" encoding="UTF-8"?>
<svg xmlns="http://www.w3.org/2000/svg" xmlns:xlink="http://www.w3.org/1999/xlink" width="32" height="32" viewBox="0 0 32 32">
<defs>
<radialGradient id="radial-pattern-0" gradientUnits="userSpaceOnUse" cx="-105.005997" cy="-10.409" fx="-105.005997" fy="-10.409" r="5.954" gradientTransform="matrix(1.84178, 0, 0, 1.82578, 209.313995, 34.923)">
<stop offset="0.183" stop-color="rgb(36.862746%, 62.7451%, 93.725491%)" stop-opacity="1"/>
<stop offset="1" stop-color="rgb(0%, 47.058824%, 83.137256%)" stop-opacity="1"/>
</radialGradient>
<clipPath id="clip-0">
<path clip-rule="nonzero" d="M 5 8.375 L 26.75 8.375 L 26.75 23.375 L 5 23.375 Z M 5 8.375 "/>
</clipPath>
<clipPath id="clip-1">
<path clip-rule="nonzero" d="M 26.613281 13.386719 C 28.011719 19.246094 24.394531 25.132812 18.535156 26.535156 C 12.675781 27.933594 6.789062 24.316406 5.386719 18.457031 C 3.988281 12.597656 7.605469 6.710938 13.464844 5.308594 C 19.324219 3.910156 25.210938 7.527344 26.613281 13.386719 "/>
</clipPath>
</defs>
<path fill-rule="nonzero" fill="rgb(31.37255%, 90.196079%, 100%)" fill-opacity="1" d="M 5.25 9.363281 C 5.167969 9.363281 5.089844 9.328125 5.03125 9.269531 C 4.972656 9.210938 4.9375 9.132812 4.9375 9.050781 C 4.9375 7.078125 3.339844 5.480469 1.367188 5.476562 C 1.285156 5.476562 1.207031 5.445312 1.148438 5.386719 C 1.089844 5.328125 1.054688 5.25 1.054688 5.167969 C 1.054688 4.992188 1.195312 4.851562 1.367188 4.851562 C 3.339844 4.851562 4.9375 3.253906 4.9375 1.28125 C 4.9375 1.195312 4.972656 1.117188 5.03125 1.058594 C 5.089844 1 5.167969 0.96875 5.25 0.96875 C 5.332031 0.964844 5.414062 1 5.472656 1.058594 C 5.53125 1.117188 5.566406 1.199219 5.5625 1.28125 C 5.570312 3.253906 7.164062 4.847656 9.136719 4.851562 C 9.21875 4.851562 9.300781 4.882812 9.359375 4.941406 C 9.417969 5 9.449219 5.082031 9.449219 5.164062 C 9.449219 5.246094 9.417969 5.328125 9.359375 5.386719 C 9.300781 5.445312 9.21875 5.476562 9.136719 5.476562 C 7.164062 5.480469 5.566406 7.078125 5.5625 9.050781 C 5.5625 9.222656 5.421875 9.363281 5.25 9.363281 M 27.753906 31.03125 C 27.613281 31.03125 27.503906 30.917969 27.503906 30.78125 C 27.5 29.203125 26.222656 27.925781 24.644531 27.925781 C 24.507812 27.921875 24.394531 27.8125 24.394531 27.675781 C 24.394531 27.539062 24.507812 27.425781 24.644531 27.425781 C 26.222656 27.425781 27.5 26.148438 27.503906 24.570312 C 27.503906 24.429688 27.617188 24.320312 27.753906 24.320312 C 27.890625 24.320312 28.003906 24.429688 28.003906 24.570312 C 28.003906 26.144531 29.28125 27.425781 30.859375 27.425781 C 31 27.425781 31.109375 27.539062 31.109375 27.675781 C 31.109375 27.816406 31 27.925781 30.859375 27.925781 C 29.28125 27.929688 28.003906 29.207031 28.003906 30.785156 C 28.003906 30.851562 27.976562 30.914062 27.929688 30.960938 C 27.882812 31.003906 27.820312 31.03125 27.753906 31.03125 "/>
<path fill-rule="nonzero" fill="url(#radial-pattern-0)" d="M 26.613281 13.386719 C 28.011719 19.246094 24.394531 25.132812 18.535156 26.535156 C 12.675781 27.933594 6.789062 24.316406 5.386719 18.457031 C 3.988281 12.597656 7.605469 6.710938 13.464844 5.308594 C 19.324219 3.910156 25.210938 7.527344 26.613281 13.386719 "/>
<g clip-path="url(#clip-0)">
<g clip-path="url(#clip-1)">
<path fill-rule="nonzero" fill="rgb(94.901961%, 94.901961%, 94.901961%)" fill-opacity="1" d="M 10.148438 23.316406 C 11.207031 23.34375 12.195312 22.796875 12.734375 21.886719 C 13.269531 20.976562 13.269531 19.847656 12.734375 18.933594 C 12.203125 18.023438 11.214844 17.472656 10.160156 17.492188 C 10.167969 17.410156 10.171875 17.328125 10.171875 17.246094 C 10.160156 15.628906 8.835938 14.324219 7.21875 14.335938 L 5.035156 14.335938 C 4.601562 17.601562 5.640625 20.890625 7.871094 23.316406 Z M 26.746094 13.894531 C 26.746094 13.867188 26.746094 13.839844 26.734375 13.816406 C 26.382812 11.914062 25.519531 10.140625 24.234375 8.695312 C 24.066406 8.628906 23.898438 8.578125 23.722656 8.535156 C 22.777344 8.265625 21.757812 8.445312 20.957031 9.019531 C 20.160156 9.597656 19.671875 10.507812 19.632812 11.492188 C 19.515625 11.476562 19.394531 11.46875 19.277344 11.46875 C 17.773438 11.46875 16.488281 12.550781 16.234375 14.03125 C 15.976562 15.511719 16.824219 16.964844 18.242188 17.464844 C 18.550781 17.585938 18.875 17.648438 19.207031 17.644531 L 22.8125 17.644531 C 24.261719 16.546875 25.582031 15.289062 26.746094 13.894531 "/>
</g>
</g>
<path fill-rule="nonzero" fill="rgb(31.37255%, 90.196079%, 100%)" fill-opacity="1" d="M 30.5625 6.8125 C 29.445312 4.949219 26.828125 4.226562 23.175781 4.769531 C 21.921875 4.945312 20.6875 5.214844 19.472656 5.574219 C 20.4375 5.90625 21.351562 6.363281 22.191406 6.9375 C 22.617188 6.84375 23.050781 6.730469 23.460938 6.667969 C 24.109375 6.566406 24.765625 6.515625 25.421875 6.511719 C 26.726562 6.320312 28.039062 6.804688 28.90625 7.800781 C 29.585938 8.933594 29.011719 10.871094 27.328125 13.132812 C 24.992188 16.042969 22.128906 18.484375 18.886719 20.335938 C 15.71875 22.3125 12.207031 23.675781 8.535156 24.355469 C 5.753906 24.773438 3.765625 24.355469 3.085938 23.226562 C 2.402344 22.09375 2.976562 20.148438 4.660156 17.902344 C 4.867188 17.621094 4.917969 17.484375 5.15625 17.203125 C 5.042969 16.238281 5.058594 15.265625 5.203125 14.304688 C 4.445312 15.0625 3.75 15.878906 3.121094 16.746094 C 0.917969 19.691406 0.320312 22.339844 1.4375 24.199219 C 2.636719 25.804688 4.601562 26.652344 6.59375 26.421875 C 7.339844 26.421875 8.082031 26.359375 8.816406 26.242188 C 12.738281 25.53125 16.488281 24.082031 19.875 21.976562 C 23.332031 20 26.382812 17.386719 28.871094 14.277344 C 31.082031 11.324219 31.679688 8.675781 30.5625 6.8125 "/>
</svg>

<svg role="img" viewBox="0 0 32 32" xmlns="http://www.w3.org/2000/svg"><defs><clipPath id="azure-cosmos_svg__b"><path d="M5 8.375h21.75v15H5Zm0 0"/></clipPath><clipPath id="azure-cosmos_svg__c"><path d="M26.613 13.387c1.399 5.86-2.218 11.746-8.078 13.148-5.86 1.399-11.746-2.219-13.148-8.078-1.399-5.86 2.218-11.746 8.078-13.148 5.86-1.399 11.746 2.218 13.148 8.078"/></clipPath><radialGradient cx="-105.006" cy="-10.409" fx="-105.006" fy="-10.409" gradientTransform="matrix(1.84178 0 0 1.82578 209.314 34.923)" gradientUnits="userSpaceOnUse" id="azure-cosmos_svg__a" r="5.954"><stop offset=".183" stop-color="rgb(36.862746%, 62.7451%, 93.725491%)"/><stop offset="1" stop-color="rgb(0%, 47.058824%, 83.137256%)"/></radialGradient></defs><path d="M5.25 9.363a.3.3 0 0 1-.219-.093.3.3 0 0 1-.093-.22 3.575 3.575 0 0 0-3.57-3.573.311.311 0 1 1 0-.625 3.57 3.57 0 0 0 3.57-3.57.313.313 0 0 1 .312-.313.3.3 0 0 1 .223.09.3.3 0 0 1 .09.222 3.58 3.58 0 0 0 3.574 3.57c.082 0 .164.032.222.09.059.059.09.141.09.223a.32.32 0 0 1-.09.223.32.32 0 0 1-.222.09A3.58 3.58 0 0 0 5.562 9.05c0 .172-.14.312-.312.312M27.754 31.03a.25.25 0 0 1-.25-.25 2.86 2.86 0 0 0-2.86-2.855.254.254 0 0 1-.25-.25c0-.137.114-.25.25-.25a2.86 2.86 0 0 0 2.86-2.856.25.25 0 1 1 .5 0 2.857 2.857 0 0 0 2.855 2.856c.141 0 .25.113.25.25 0 .14-.109.25-.25.25a2.86 2.86 0 0 0-2.855 2.86.25.25 0 0 1-.074.175.26.26 0 0 1-.176.07" fill="rgb(31.37255%, 90.196079%, 100%)"/><path d="M26.613 13.387c1.399 5.86-2.218 11.746-8.078 13.148-5.86 1.399-11.746-2.219-13.148-8.078-1.399-5.86 2.218-11.746 8.078-13.148 5.86-1.399 11.746 2.218 13.148 8.078" fill="url(#azure-cosmos_svg__a)"/><g clip-path="url(#azure-cosmos_svg__b)"><g clip-path="url(#azure-cosmos_svg__c)"><path d="M10.148 23.316a2.92 2.92 0 0 0 2.586-1.43 2.917 2.917 0 0 0-2.574-4.394q.012-.123.012-.246a2.934 2.934 0 0 0-2.953-2.91H5.035a11.1 11.1 0 0 0 2.836 8.98Zm16.598-9.421c0-.028 0-.055-.012-.079a10.6 10.6 0 0 0-2.5-5.12 4 4 0 0 0-.511-.16 3.23 3.23 0 0 0-2.766.484 3.21 3.21 0 0 0-1.324 2.472 3 3 0 0 0-.356-.023 3.086 3.086 0 0 0-3.043 2.562 3.08 3.08 0 0 0 2.008 3.434c.309.12.633.183.965.18h3.605a24 24 0 0 0 3.934-3.75" fill="rgb(94.901961%, 94.901961%, 94.901961%)"/></g></g><path d="M30.563 6.813c-1.118-1.864-3.735-2.586-7.387-2.043a25.5 25.5 0 0 0-3.703.804c.965.332 1.879.79 2.718 1.364.426-.094.86-.208 1.27-.27a13 13 0 0 1 1.96-.156A3.87 3.87 0 0 1 28.907 7.8c.68 1.133.106 3.07-1.578 5.332a29.7 29.7 0 0 1-8.441 7.203 29.8 29.8 0 0 1-10.352 4.02c-2.781.417-4.77 0-5.45-1.13-.683-1.132-.108-3.078 1.575-5.324.207-.28.258-.418.496-.699a11 11 0 0 1 .047-2.898 20 20 0 0 0-2.082 2.441C.918 19.691.321 22.34 1.438 24.2a5.63 5.63 0 0 0 5.156 2.223c.746 0 1.488-.063 2.222-.18a31.6 31.6 0 0 0 11.059-4.265 31.6 31.6 0 0 0 8.996-7.7c2.211-2.953 2.809-5.601 1.692-7.464" fill="rgb(31.37255%, 90.196079%, 100%)"/></svg>
